Obsidian/actions/22s/view-object-histogram-logarithmic.svg

<svg height="22" viewBox="0 0 22 22" width="22" xmlns="http://www.w3.org/2000/svg"><path d="m1 1v14h14v-3h-1v-1h-1v-3h-1v-2h-1v3h-1v-2h-1v-2h-1v-3h-1v2h-1v2h-1v1h-1v1h-1v-4h-1v-3z" fill="#bebebe" transform="translate(3 3)"/></svg>

<svg xmlns="http://www.w3.org/2000/svg" width="22" height="22" viewBox="0 0 22 22">
 <defs>
  <style id="current-color-scheme" type="text/css">
   .ColorScheme-Text { color:#bebebe; } .ColorScheme-Highlight { color:#4285f4; }
  </style>
 </defs>
 <path style="fill:currentColor" class="ColorScheme-Text" d="M 1 1 L 1 15 L 15 15 L 15 12 L 14 12 L 14 11 L 13 11 L 13 8 L 12 8 L 12 6 L 11 6 L 11 9 L 10 9 L 10 7 L 9 7 L 9 5 L 8 5 L 8 2 L 7 2 L 7 4 L 6 4 L 6 6 L 5 6 L 5 7 L 4 7 L 4 8 L 3 8 L 3 4 L 2 4 L 2 1 L 1 1 z" transform="translate(3 3)"/>
</svg>
